logos/elo.svg

<?xml version="1.0" encoding="UTF-8"?>
<svg width="512px" height="197px" viewBox="0 0 512 197" version="1.1" xmlns="http://www.w3.org/2000/svg" preserveAspectRatio="xMidYMid">
    <title>elo</title>
    <g>
        <g>
            <path d="M79.8167916,43.3441044 C85.568446,41.4226005 91.7171758,40.3901014 98.1199512,40.3901014 C126.038117,40.3901014 149.347318,60.220168 154.686406,86.5779158 L194.261755,78.5052553 C185.179108,33.7109223 145.593949,0 98.1199512,0 C87.2414292,0 76.7909638,1.77290785 67.0143389,5.03947477 L79.8167916,43.3441044 Z" fill="#FFCC00"></path>
            <path d="M33.111385,171.603675 L59.8742116,141.345914 C47.9275105,130.76223 40.3900497,115.31605 40.3900497,98.1070424 C40.3900497,80.9109433 47.9172351,65.4719929 59.8561393,54.9012173 L33.0908858,24.6388608 C12.8023494,42.6139298 7.3378154e-14,68.8695947 7.3378154e-14,98.1070424 C7.3378154e-14,127.362562 12.8074613,153.625818 33.111385,171.603675 Z" fill="#00A0DE"></path>
            <path d="M154.676079,109.68987 C149.313755,136.035225 126.030372,155.826514 98.1199512,155.826514 C91.7151104,155.826514 85.5483082,154.793808 79.7992356,152.862132 L66.9787105,191.182226 C76.7579172,194.446093 87.2290368,196.214085 98.1199512,196.214085 C145.547994,196.214085 185.128505,162.559238 194.246264,117.80642 L154.676079,109.68987 Z" fill="#EC3413"></path>
        </g>
        <path d="M228.869272,142.621822 C227.573226,140.521299 225.810398,137.162423 224.749809,134.690126 C218.482834,120.140335 218.18335,105.083486 223.476483,90.628704 C229.294747,74.7771877 240.411307,62.6413466 254.773662,56.4616356 C272.831038,48.6909898 292.802017,50.2230604 310.108099,60.4917696 C321.101768,66.7990197 328.895598,76.5374346 334.813518,90.3054671 L335.362813,91.6438214 L335.362813,91.6438214 L336.38724,94.3040713 C336.551981,94.7329669 336.714471,95.1504059 336.875831,95.550063 L228.869272,142.621822 Z M264.93497,79.8193733 C252.111863,85.3304073 245.50203,97.3588471 246.860038,111.462509 L301.179326,88.0846335 C291.838503,77.1064554 279.681491,73.4682332 264.93497,79.8193733 Z M328.949299,144.722862 L307.953359,130.685293 L307.922894,130.716274 L306.798277,129.957752 C303.557131,135.217838 298.499454,139.478266 292.117849,142.245401 C279.976328,147.525625 268.723967,146.167617 260.643561,139.08119 L259.900529,140.21097 C259.892784,140.198062 259.890202,140.188251 259.877294,140.188251 L246.096352,160.804671 C249.516674,163.18196 253.190524,165.195736 257.048713,166.804692 C272.272344,173.127949 287.847095,172.835693 303.19052,166.161832 C314.289525,161.352522 322.997816,154.017729 328.949299,144.722862 Z M374.627421,26.0992099 L374.627421,140.718545 L392.446242,147.940773 L382.321079,171.56753 L362.6501,163.376625 C358.235283,161.465603 355.23011,158.539431 352.955059,155.237355 C350.780181,151.870734 349.153153,147.251442 349.153153,141.030939 L349.153153,26.0992099 L374.627421,26.0992099 Z M420.791948,111.519308 C420.802275,101.758173 425.111756,93.0059925 431.931745,87.0570913 L413.649239,66.6709642 C401.249025,77.6315863 393.439705,93.6467864 393.424649,111.490908 C393.404076,129.34071 401.20307,145.373466 413.590375,156.361971 L431.852226,135.955707 C425.065284,129.983569 420.784203,121.257206 420.791948,111.519308 Z M453.275706,144.051603 C449.675694,144.041276 446.209417,143.446954 442.976016,142.370874 L434.245005,168.331547 C440.211979,170.334996 446.603911,171.426566 453.247307,171.436952 C482.195597,171.465292 506.368139,150.925292 511.968502,123.619521 L485.131579,118.139468 C482.079934,132.940206 468.975415,144.06193 453.275706,144.051603 Z M453.355225,51.6630861 C446.719574,51.6554232 440.330224,52.7340843 434.370995,54.7194611 L443.025586,80.7033694 C446.268798,79.6324536 449.735075,79.0407132 453.329923,79.0407132 C469.065776,79.0562038 482.180623,90.2440211 485.160495,105.086068 L512,99.6416431 C506.476057,72.2971449 482.326751,51.6807245 453.355225,51.6630861 Z" fill="#000000"></path>
    </g>
</svg>

<svg preserveAspectRatio="xMidYMid" viewBox="0 0 512 197" xmlns="http://www.w3.org/2000/svg">
  <path fill="#FC0" d="M79.817 43.344A57.633 57.633 0 0 1 98.12 40.39c27.918 0 51.227 19.83 56.566 46.188l39.576-8.073C185.179 33.711 145.594 0 98.12 0a97.947 97.947 0 0 0-31.106 5.04l12.803 38.304Z"/>
  <path fill="#00A0DE" d="m33.111 171.604 26.763-30.258c-11.946-10.584-19.484-26.03-19.484-43.239 0-17.196 7.527-32.635 19.466-43.206L33.091 24.64C12.802 42.614 0 68.869 0 98.107c0 29.256 12.807 55.519 33.111 73.497Z"/>
  <path fill="#EC3413" d="M154.676 109.69c-5.362 26.345-28.646 46.137-56.556 46.137-6.405 0-12.572-1.033-18.32-2.965l-12.821 38.32c9.779 3.264 20.25 5.032 31.141 5.032 47.428 0 87.009-33.655 96.126-78.408l-39.57-8.116Z"/>
  <path d="M228.87 142.622c-1.297-2.1-3.06-5.46-4.12-7.932-6.267-14.55-6.567-29.607-1.274-44.061 5.819-15.852 16.935-27.988 31.298-34.167 18.057-7.771 38.028-6.239 55.334 4.03 10.994 6.307 18.788 16.045 24.706 29.813l.549 1.339 1.024 2.66c.165.429.327.846.489 1.246l-108.007 47.072Zm36.065-62.803c-12.823 5.511-19.433 17.54-18.075 31.644l54.32-23.378c-9.341-10.979-21.499-14.617-36.245-8.266Zm64.014 64.904-20.996-14.038-.03.031-1.125-.758c-3.24 5.26-8.299 9.52-14.68 12.287-12.142 5.28-23.394 3.923-31.474-3.164l-.743 1.13c-.008-.013-.01-.023-.024-.023l-13.78 20.617a58.958 58.958 0 0 0 10.952 6c15.223 6.323 30.798 6.03 46.142-.643 11.099-4.81 19.807-12.144 25.758-21.44Zm45.678-118.624v114.62l17.82 7.222-10.126 23.627-19.67-8.191c-4.416-1.911-7.42-4.838-9.696-8.14-2.175-3.366-3.802-7.986-3.802-14.206V26.099h25.474Zm46.165 85.42c.01-9.76 4.32-18.513 11.14-24.462l-18.283-20.386c-12.4 10.96-20.21 26.976-20.224 44.82-.02 17.85 7.778 33.882 20.165 44.871l18.262-20.406c-6.787-5.972-11.068-14.699-11.06-24.437Zm32.484 32.533c-3.6-.01-7.067-.605-10.3-1.681l-8.731 25.96a59.903 59.903 0 0 0 19.002 3.106c28.949.028 53.121-20.512 58.722-47.817l-26.837-5.48c-3.052 14.8-16.157 25.922-31.856 25.912Zm.08-92.389a59.768 59.768 0 0 0-18.985 3.056l8.655 25.984a32.824 32.824 0 0 1 10.304-1.662c15.736.015 28.85 11.203 31.83 26.045L512 99.642c-5.524-27.345-29.673-47.961-58.645-47.979Z"/>
</svg>
